www/assets/icons/invert_colors_off.svg

<svg width="24" height="24" viewBox="0 0 24 24" xmlns="http://www.w3.org/2000/svg" fill='currentColor'><path d="M21.9 20.89L3.51998 2.50995L2.09998 3.91995L6.29998 8.11995C5.29998 9.42995 4.69998 11.06 4.69998 12.82C4.70998 17.18 8.28998 20.7 12.71 20.7C14.46 20.7 16.07 20.14 17.38 19.2L20.48 22.3L21.9 20.89ZM12.71 18.7C9.39998 18.7 6.70998 16.07 6.70998 12.83C6.70998 11.64 7.06998 10.51 7.72998 9.54995L12.71 14.53V18.7ZM9.08998 5.25995L12.71 1.69995L18.36 7.25995C19.81 8.68995 20.71 10.66 20.71 12.83C20.71 14.01 20.44 15.12 19.97 16.13L12.71 8.86995V4.50995L10.51 6.66995L9.08998 5.25995Z"/></svg>

<svg xmlns="http://www.w3.org/2000/svg" width="24" height="24" viewBox="0 0 24 24" fill='currentColor'><path d="M21.9 20.89 3.52 2.51 2.1 3.92l4.2 4.2a7.73 7.73 0 0 0-1.6 4.7c.01 4.36 3.59 7.88 8.01 7.88 1.75 0 3.36-.56 4.67-1.5l3.1 3.1zm-9.19-2.19c-3.31 0-6-2.63-6-5.87 0-1.19.36-2.32 1.02-3.28l4.98 4.98zM9.09 5.26l3.62-3.56 5.65 5.56c1.45 1.43 2.35 3.4 2.35 5.57 0 1.18-.27 2.29-.74 3.3l-7.26-7.26V4.51l-2.2 2.16z"/></svg>
